img/wi-fi.svg

<svg width="44" height="34" viewBox="0 0 44 34" fill="none" xmlns="http://www.w3.org/2000/svg">
<path d="M7.1535 15.6233C6.23627 16.561 6.23627 18.087 7.1535 19.0339C8.07073 19.9716 9.56347 19.9716 10.4897 19.0339C16.8384 12.5437 27.1707 12.5437 33.5193 19.0339C33.9779 19.5028 34.5804 19.7418 35.1829 19.7418C35.7854 19.7418 36.3879 19.5028 36.8465 19.0339C37.7638 18.0962 37.7638 16.5702 36.8465 15.6233C28.6634 7.2486 15.3366 7.2486 7.1535 15.6233Z" fill="white"/>
<path d="M13.5201 22.1319C12.6029 23.0696 12.6029 24.5956 13.5201 25.5425C14.4374 26.4802 15.9301 26.4802 16.8563 25.5425C19.6889 22.6376 24.3111 22.6376 27.1437 25.5425C27.6023 26.0114 28.2048 26.2504 28.8073 26.2504C29.4098 26.2504 30.0123 26.0114 30.4709 25.5425C31.3881 24.6048 31.3881 23.0788 30.4709 22.1411C25.8038 17.3516 18.1962 17.3516 13.5201 22.1319Z" fill="white"/>
<path d="M22 33.9999C23.7333 33.9999 25.1384 32.5635 25.1384 30.7916C25.1384 29.0197 23.7333 27.5833 22 27.5833C20.2667 27.5833 18.8616 29.0197 18.8616 30.7916C18.8616 32.5635 20.2667 33.9999 22 33.9999Z" fill="white"/>
<path d="M43.3121 9.00446C31.559 -3.00149 12.441 -3.00149 0.687922 9.00446C-0.229307 9.94214 -0.229307 11.4682 0.687922 12.415C1.60515 13.3527 3.0979 13.3527 4.02412 12.415C13.9338 2.27525 30.0662 2.27525 39.9849 12.415C40.4435 12.8839 41.046 13.1229 41.6485 13.1229C42.251 13.1229 42.8535 12.8839 43.3121 12.415C44.2293 11.4774 44.2293 9.95133 43.3121 9.00446Z" fill="white"/>
</svg>

<svg width="44" height="34" fill="none" xmlns="http://www.w3.org/2000/svg"><path d="M7.154 15.623a2.458 2.458 0 000 3.41 2.33 2.33 0 003.336 0 16.053 16.053 0 0123.03 0 2.324 2.324 0 001.663.709c.602 0 1.205-.24 1.663-.708a2.457 2.457 0 000-3.41 20.687 20.687 0 00-29.692 0z" fill="#fff"/><path d="M13.52 22.132a2.458 2.458 0 000 3.41 2.33 2.33 0 003.336 0 7.161 7.161 0 0110.288 0 2.324 2.324 0 001.663.708c.603 0 1.205-.239 1.664-.707a2.446 2.446 0 000-3.402 11.803 11.803 0 00-16.95-.01zM22 34c1.733 0 3.138-1.437 3.138-3.208 0-1.772-1.405-3.209-3.138-3.209-1.733 0-3.138 1.437-3.138 3.209C18.862 32.563 20.267 34 22 34zM43.312 9.004a29.723 29.723 0 00-42.624 0 2.458 2.458 0 000 3.411 2.33 2.33 0 003.336 0 25.058 25.058 0 0135.96 0 2.324 2.324 0 001.664.708c.603 0 1.205-.24 1.664-.708.917-.938.917-2.464 0-3.41z" fill="#fff"/></svg>
